X: 108
T: Denis Murphy's Polka
N: page 37
N: heptatonic
N: matches 216
R: polka
C: Denis Murphy
M: 4/4
L: 1/8
K: D
|: "D"fgfe dedB | A2D2F2A2 | "G"G2E2 e3d |"A" c2B2B2A2 |\
  "D"fgfe dedB  | A2D2F2A2 | "G"G2E2 "A"e3f |"D"e2d2 d4 ::
  "D"A2f2 f2ef  | "G"A2g2 g2fg |"D" A2f2 fed2 | "A"efed B2AB |\
"D"A2f2 f2ef | "G"A2g2 gfga | b2a2"A"gage | "D"e2d2d4:|
